X:68
T: GENIESST DEN REIZ DES LEBENS
N: B0553A
O: Europa, Mitteleuropa, Deutschland
R: Studenten -, Trink - Lied
M: 6/8
L: 1/8
K: F
C | F2FAGF | F2DD2
D | C2CCDE | F2z3
C | F2FAGF | F2DD2
D | C2CCDE | F2Ac2
c | d2dfed | c3Az
A | GBAGFE | F2z3

@@@ Tune index: 2286
